!!!COM: Anon.
!!!OCL: Francis James Child
!!!OPR: The English and Scottish Popular Ballads
!!!OVM: Vol. 1
!!!ONB: Ballad No. 17, Tune No. 1
!!!ONM: No. 17
!!!PDT: 1882
!!!YEM: Public domain.
**kern
*M4/4
*g:
{(8g
8a)
=1
4b-
(8b-
8a)
4g
(8g
8a)
=2
4b-
4cc
4dd}
!! Second phrase:
{8dd
8dd
=3
4ee-
8dd
8dd
4cc
8cc
8cc
=4
4dd
4ff#
4gg;}
!! Third phrase:
{8gg
8ff#
=5
4gg
8g
8g
4g
(8g
8a)
=6
4b-
(8cc
8b-)
4a}
!! Fourth phrase:
{8g
8f
=7
4b-
8b-
8b-
4cc
4cc
=8
(8dd
8cc)
(8b-
8a)
4g}
4r
====
*-
!!!OCY: Britain; England
!!!PPP: Boston
!!!ODT: <1882
!!!AFR: folk song
!!!AST: monophony
!!!AMT: simple quadruple
!!!SCA: Child Collection
!!!AIN: vox
!!!EEV: 1.0
!!!RDT: 1987 June
!!!YER: 1994 August 10
!!!VTS: 652652838
